!!!COM: (Joseph) Maurice Ravel
!!!OTL: [T291_Rav-w17p17s1-2]
**kern	**kern	**dynam
!!pagebreak:original
*clefF4	*clefG2	*
*k[b-e-a-d-g-c-]	*k[b-e-a-d-g-c-]	*
*G-:	*G-:	*
*M4/4	*M4/4	*
=1	=1	=1
!	!LO:TX:t=[quarter]=60	!
!	!LO:TX:t=[quarter]=32	!
!	!LO:TX:b:Bi:t=Sourdine durant toute la pièce	!
!	!LO:TX:a:B:t=Très lent Sans presser ni ralentir jusqu'à la fin	!
1r	4r	.
.	8r	.
.	([8B-'^ 8b-	pp
.	4B-'] 4b-)	.
.	([8B-'^ 8b-	.
.	8B-'L_ [8b-)	.
=2	=2	=2
1r	8B-J] 8b-]	.
.	4b-~	.
.	([8B-'^ 8b-	.
.	4B-'] 4b-)	.
.	([8B-'^ 8b-	.
.	8B-'L_ [8b-)	.
=3	=3	=3
*	*^	*
!	!LO:TX:b:Bi:t=un peu marqué	!	!
[2EE- [2BB- [2F	8b-J]	(2B-_ [2f	.
.	4b-~	.	.
.	(8B-'^] 8b-	.	.
8EE-L] 8BB-] 8F]	4b-')	8B-L 8f]	.
8CC- 8GG- 8D-	.	8G- 8d-	.
8.DD- 8.AA- 8.E-	(8B-'^ 8b-	8.A- [8.e-	.
.	[8b-'L)	.	.
16AA-Jk 16E- 16B-	.	16c-Jk 16e-]	.
!!linebreak:original
=4	=4	=4	=4
[2EE- [2BB- [2F	8b-J]	[2B- [2f	.
.	4b-~	.	.
.	(8B-'^] 8b-	.	.
8EE-L] 8BB-] 8F]	4b-')	8B-L 8f]	.
8CC- 8GG- 8D-	.	8G- 8d-	.
8.DD- 8.AA- 8.E-	(8B-'^ 8b-	8.A- 8.e-	.
.	[8b-'L)	.	.
16AA-Jk 16E- 16B-	.	16c-Jk 16e-	.
=5	=5	=5	=5
1EE- 1BB- 1F	8b-J]	1B- 1f)	.
.	4b-~	.	.
.	([8B-'^ 8b-	.	.
.	4B-'] 4b-)	.	.
*clefG2	*	*	*
*^	*	*	*
!	!LO:TX:t=P:problem: There are several rhythms here that VHV is having difficulty with; preventing the example from being displayed.	!	!	!
.	[8B-'^ 8b-	4r	.	.
.	8B-'L_ [8b-	.	.	.
*	*	*v	*v	*
=6	=6	=6	=6
*	*^	*	*
!	!	!	!LO:TX:b:t=p expressif	!
!	!	!	!LO:TX:b:t=p expressif	!
1ryy	8.d-L	8B-/J] 8b-]	(8.dd-L	.
.	.	4B-~/ 4b-	.	.
.	16e-Jk	.	16ee-Jk	.
.	4d-	.	4dd-	.
.	.	[8B-'^/ 8b-	.	.
.	8f-XL	4B-'/] 4b-	8ff-XL	.
.	8e-	.	8ee-	.
.	8.cn	[8B-'^/ 8b-	8.ccn	.
.	.	8B-'/L_ [8b-	.	.
.	16e-Jk	.	16ee-Jk	.
=7	=7	=7	=7	=7
*	*	*	*^	*
1ryy	4e-	8B-/J] 8b-]	4ee-	2f-X	.
.	.	4B-~/ 4b-	.	.	.
.	2.d-	.	2.dd-)	.	.
.	.	[8B-'^/ 8b-	.	.	.
*	*	*	*v	*v	*
.	.	4B-'/] 4b-	.	.
*	*v	*v	*^	*
.	.	.	([8B-'^ 8b-	.
.	.	.	8B-'] [8b-)	.
*v	*v	*	*	*
*	*v	*v	*
=	=	=
*-	*-	*-
!!!system-decoration: [({(s1,s2)})]
!!!EED: Daniel Wright
!!!EEV: 2021/07/13
